icon-themes/breeze_svg/cmd/sc_radiobutton.svg

<svg viewBox="0 0 16 16" xmlns="http://www.w3.org/2000/svg">/&gt;<path d="m8 2c-3.3137069 0-6 2.6862994-6 6 0 3.3137 2.6862931 6 6 6 3.313707 0 6-2.6863 6-6 0-3.3137006-2.686293-6-6-6zm0 1c2.761424 0 5 2.238576 5 5s-2.238576 5-5 5c-2.7614235 0-5-2.238576-5-5s2.2385765-5 5-5zm0 1c-2.2091388 0-4 1.7908608-4 4 0 2.209139 1.7908612 4 4 4 2.209139 0 4-1.790861 4-4 0-2.2091392-1.790861-4-4-4z" fill="#4d4d4d"/></svg>

<svg xmlns="http://www.w3.org/2000/svg" viewBox="0 0 16 16">
     />
 <path 
     style="fill:#4d4d4d" 
     d="M 8 2 C 4.6862931 2 2 4.6862994 2 8 C 2 11.3137 4.6862931 14 8 14 C 11.313707 14 14 11.3137 14 8 C 14 4.6862994 11.313707 2 8 2 z M 8 3 C 10.761424 3 13 5.238576 13 8 C 13 10.761424 10.761424 13 8 13 C 5.2385765 13 3 10.761424 3 8 C 3 5.238576 5.2385765 3 8 3 z M 8 4 C 5.7908612 4 4 5.7908608 4 8 C 4 10.209139 5.7908612 12 8 12 C 10.209139 12 12 10.209139 12 8 C 12 5.7908608 10.209139 4 8 4 z "
     />
 </svg>
